Numix/32/actions/go-jump.svg

<?xml version="1.0" encoding="UTF-8" standalone="no"?>
<svg
   xmlns:dc="http://purl.org/dc/elements/1.1/"
   xmlns:cc="http://creativecommons.org/ns#"
   xmlns:rdf="http://www.w3.org/1999/02/22-rdf-syntax-ns#"
   xmlns:svg="http://www.w3.org/2000/svg"
   xmlns="http://www.w3.org/2000/svg"
   xmlns:sodipodi="http://sodipodi.sourceforge.net/DTD/sodipodi-0.dtd"
   xmlns:inkscape="http://www.inkscape.org/namespaces/inkscape"
   width="32"
   height="32"
   viewBox="0 0 32 32"
   id="svg2"
   version="1.1"
   inkscape:version="0.91 r13725"
   sodipodi:docname="go-jump.svg">
  <metadata
     id="metadata16">
    <rdf:RDF>
      <cc:Work
         rdf:about="">
        <dc:format>image/svg+xml</dc:format>
        <dc:type
           rdf:resource="http://purl.org/dc/dcmitype/StillImage" />
      </cc:Work>
    </rdf:RDF>
  </metadata>
  <defs
     id="defs14" />
  <sodipodi:namedview
     pagecolor="#ffffff"
     bordercolor="#666666"
     borderopacity="1"
     objecttolerance="10"
     gridtolerance="10"
     guidetolerance="10"
     inkscape:pageopacity="0"
     inkscape:pageshadow="2"
     inkscape:window-width="1366"
     inkscape:window-height="704"
     id="namedview12"
     showgrid="true"
     inkscape:zoom="15.527832"
     inkscape:cx="8.9750637"
     inkscape:cy="21.152039"
     inkscape:window-x="0"
     inkscape:window-y="27"
     inkscape:window-maximized="1"
     inkscape:current-layer="svg2">
    <inkscape:grid
       type="xygrid"
       id="grid4147" />
  </sodipodi:namedview>
  <path
     style="fill:#268bd2;fill-rule:evenodd"
     d="M 28.470703,5.9882812 C 23,5 10,5 3.5058594,6.0195312 1.3163293,8.7566329 0,12.22286 0,16 0,24.835938 7.1640623,32 16.003906,32 24.839844,32 32,24.835938 32,16 32,12.208481 30.674162,8.7301827 28.470703,5.9882812 Z"
     id="path4"
     inkscape:connector-curvature="0"
     sodipodi:nodetypes="ccsssc" />
  <g
     style="fill:#fff;fill-opacity:.902"
     id="g6">
    <path
       d="M 16.003906 0 C 11.132812 -5.9211895e-16 6.5312498 2.2148443 3.4960938 6.0195312 L 14.007812 6.0058594 L 14.007812 18.625 L 9.9453125 14.6875 C 9.2851565 14.019531 8.2578125 13.824219 7.3828125 14.1875 C 6.5039065 14.550781 5.9765625 15.382812 6.0078125 16.3125 C 6.0234385 16.898438 6.2695315 17.472656 6.6953125 17.875 L 14.382812 25.3125 C 14.8125 25.738281 15.394531 26 16.007812 26 C 16.617188 26 17.199219 25.738281 17.632812 25.3125 L 25.320312 17.875 C 26.21875 17 26.21875 15.5625 25.320312 14.6875 C 24.417969 13.8125 22.96875 13.8125 22.070312 14.6875 L 18.007812 18.625 L 18.007812 6.0019531 L 28.480469 5.9882812 C 25.441406 2.2031253 20.855469 0 16.003906 0 z "
       id="path8"
       style="fill:#eaf4fb;fill-opacity:1" />
  </g>
</svg>

<svg xmlns="http://www.w3.org/2000/svg" viewBox="0 0 32 32">
 <path d="m 28.471 5.988 c -5.471 -0.988 -18.471 -0.988 -24.965 0.031 -2.19 2.737 -3.506 6.203 -3.506 9.98 0 8.836 7.164 16 16 16 8.836 0 15.996 -7.164 15.996 -16 0 -3.792 -1.326 -7.27 -3.529 -10.01" style="fill:#268bd2;fill-rule:evenodd"/>
 <g style="fill:#fff;fill-opacity:0.902">
  <path d="m 16 0 c -4.871 0 -9.473 2.215 -12.508 6.02 l 10.512 -0.014 l 0 12.619 l -4.062 -3.938 c -0.66 -0.668 -1.688 -0.863 -2.563 -0.5 c -0.879 0.363 -1.406 1.195 -1.375 2.125 c 0.016 0.586 0.262 1.16 0.688 1.563 l 7.687 7.438 c 0.43 0.426 1.012 0.688 1.625 0.688 c 0.609 0 1.191 -0.262 1.625 -0.688 l 7.688 -7.438 c 0.898 -0.875 0.898 -2.313 0 -3.188 c -0.902 -0.875 -2.352 -0.875 -3.25 0 l -4.063 3.938 l 0 -12.623 l 10.473 -0.014 c -3.039 -3.785 -7.625 -5.988 -12.477 -5.988 z" style="fill:#eaf4fb;fill-opacity:1"/>
 </g>
</svg>
